X: 5
T:An Culyek Hos
M:6/8
L:1/8
R:Jig
Z:bil@blueskiesink.com
K:F
D|G2 A B2 B|cBA G2 D|B2 c d2 _e|1 edA BGD:|2dcA G2 z|!|
G2 A BAG|BAF B2 G|G2 A B&gt;AG|B2 c d3|Bcd d=ed|cBA BAG|B&gt;cd ded|c&gt;BA G3||
<end>
<start>
